!!!COM: Palestrina, Giovanni Perluigi da
!!!OPR: Jesu Nostra Redemptio
!!!OTL: Sanctus
**kern	**kern	**kern	**kern
*Ibass	*Itenor	*Icalto	*Icant
!Bassus	!Tenor	!Altus	!Cantus
*clefF4	*clefGv2	*clefG2	*clefG2
*k[]	*k[]	*k[]	*k[]
*E:phr	*E:phr	*E:phr	*E:phr
*M4/2	*M4/2	*M4/2	*M4/2
=1	=1	=1	=1
0r	0r	0c	0r
=2	=2	=2	=2
1r	0r	1B	0r
[1F	.	1c	.
=3	=3	=3	=3
1F]	1r	1d	0r
1E	[1c	1e	.
=4	=4	=4	=4
1F	1c]	1A	0r
1G	1B	2r	.
.	.	[2d	.
=5	=5	=5	=5
1A	1c	4d]	0r
.	.	4c	.
.	.	1c	.
2.G	1d	.	.
.	.	2B	.
4F	.	.	.
=6	=6	=6	=6
2E	2e	2G	1r
2.F	2.d	2.A	.
.	.	.	[1f
4E	4c	4G	.
4D	[2c	4F	.
4C	.	4E	.
=7	=7	=7	=7
1D	2c]	1F	1f]
.	2B	.	.
1C	2.c	1G	1e
.	4B	.	.
=8	=8	=8	=8
0r	4A	2r	1f
.	4G	.	.
.	2A	1c	.
.	1G	.	1g
.	.	2B	.
=9	=9	=9	=9
1F	1r	2c	1a
.	.	2d	.
1E	2r	1e	1g
.	[2c	.	.
=10	=10	=10	=10
2F	2c]	1d	2f
2G	2B	.	2d
1A	1c	2c	2f
.	.	2A	4e
.	.	.	4f
=11	=11	=11	=11
2.G	1d	2.B	4g
.	.	.	4a
.	.	.	2.g
4F	.	4A	.
2E	1G	2B	.
.	.	.	4f
2C	.	[2c	[2e
=12	=12	=12	=12
1F	1A	2c]	2e]
.	.	4B	2d
.	.	4A	.
1E	2r	1B	[1e
.	2G	.	.
=13	=13	=13	=13
1A	2A	1c	1e]
.	1c	.	.
1G	.	1d	1g
.	2B	.	.
=14	=14	=14	=14
0r	1A	2r	2a
.	.	2c	1cc
.	1G	1d	.
.	.	.	2b
=15	=15	=15	=15
1r	4D	1.f	1.a
.	4E	.	.
.	4F	.	.
.	4G	.	.
2r	4A	.	.
.	4B	.	.
2C	2c	2e	2g
=16	=16	=16	=16
2D	2.A	2d	2.f
1F	.	4c	.
.	4G	4B	4e
.	2F	2A	2d
2E	2G	2G	2c
=17	=17	=17	=17
1D	1.A	4F	1f
.	.	4G	.
.	.	4A	.
.	.	4B	.
2.C	.	1c	2e
.	2G	.	[2cc
4BB	.	.	.
=18	=18	=18	=18
2AA	2F	2r	2cc]
2GG	2G	1d	2b
1AA	1E	.	[1a
.	.	2c#	.
=19	=19	=19	=19
2.D	2D	2d	1a]
.	2.d	1f	.
4E	.	.	.
1F	.	.	2r
.	4c	.	.
.	2A	2d	[2a
=20	=20	=20	=20
1E	1B	2.e	2a]
.	.	.	2g#
.	.	4d	.
2.F	1r	2c	2a
.	.	2A	[2cc
4G	.	.	.
=21	=21	=21	=21
1A	2r	[0e	2cc]
.	1A	.	2a
1E	.	.	1b
.	2G#	.	.
=22	=22	=22	=22
0r	2A	0e]	2.cc
.	1c	.	.
.	.	.	8b
.	.	.	8a
.	.	.	2g
.	2A	.	2a
=23	=23	=23	=23
1r	1B-	2r	1d
.	.	1d	.
2r	1A	.	1e
2A	.	2c#	.
=24	=24	=24	=24
2G	2B	2d	2r
2A	2c	1f	1a
1B-	1d	.	.
.	.	2d	2g
=25	=25	=25	=25
1A	2r	1.e	2a
.	1A	.	2.cc
2r	.	.	.
.	.	.	4b-
[2D	2F	2f	4a
.	.	.	4g
=26	=26	=26	=26
2D]	2.A	2d	2f
2C#	.	2e	2e
.	4G	.	.
2D	4F	2f	2d
.	4E	.	.
[2F	2D	2f	[2dd
=27	=27	=27	=27
2F]	2.d	2f	4dd]
.	.	.	4cc
2D	.	2f	4b
.	4c	.	4a
2E	2B	2e	2g#
2F	2A	2d	[2a
=28	=28	=28	=28
1.E	1B	0e	2a]
.	.	.	4g#
.	.	.	4f#
.	1B	.	2g#
2E	.	.	2g#
=29	=29	=29	=29
0AA	2A	2r	0a
.	2c#	2e	.
.	2c#	2e	.
.	2c#	2e	.
=30	=30	=30	=30
2r	0d	0f	2r
2D	.	.	2a
2D	.	.	2a
2D	.	.	2a
=31	=31	=31	=31
1A	2c	2e	1cc
.	2A	2c	.
2G	1B	2d	2b
2E	.	[2e	2g
=32	=32	=32	=32
1F	1A	2e]	1a
.	.	2d	.
1C	2.c	1e	1g
.	4B	.	.
=33	=33	=33	=33
0r	2A	2r	2.cc
.	4F	1f	.
.	4G	.	4b
.	4A	.	2a
.	4B	.	.
.	2c	2e	4g
.	.	.	4a
=34	=34	=34	=34
0r	2B	2d	4b
.	.	.	4g
.	2A	2c	1cc
.	1G	1d	.
.	.	.	2b
=35	=35	=35	=35
0C	0c	0e	1cc
.	.	.	1g
=36	=36	=36	=36
1D	1A	2.d	1f
.	.	4c	.
1E	1G#	4B	1e
.	.	4A	.
.	.	2B	.
=37	=37	=37	=37
1F	1A	4A	2c
.	.	4B	.
.	.	4c	2.f
.	.	4A	.
1G	1E	1B	.
.	.	.	4e
.	.	.	[2e
=38	=38	=38	=38
1A	0F	2r	2e]
.	.	1A	4d
.	.	.	4c
1D	.	.	1d
.	.	2B	.
=39	=39	=39	=39
1.AA	2E	1.c	[0e
.	1A	.	.
2GG#	2B	2B	.
=40	=40	=40	=40
0AA	2.c	2.A	0e]
.	4B	4B	.
.	1A	1c	.
=41	=41	=41	=41
[0E	[0G#	[0B	[0e
=42	=42	=42	=42
0E]	0G#]	0B]	0e]
==	==	==	==
*-	*-	*-	*-
!!!CDT: 1525/^1526/-1594/2/2
!!!OCY: Italia
!!!AGN: Mass (Paraphrase)
!!!AST: renaissance, vocal
!!!ASW: Hymn
!!!PWK: Masses, Book 4
!!!RNB: Cadence finals: C,A
!!!YOR: Le Opere Complete, v. 10, p. 38
!!!YOO: Rome, Italy: Fratelli Scalera
!!!END: 1992//
!!!EED: John Miller
!!!YEC: Copyright 2000, John Miller
!!!YEN: United States of America
!!!YEM: Rights to all derivative electronic formats reserved.
!!!YEM: Refer to licensing agreement for further details.
!!!YEM: This file must be accompanied by the licensing agreement.
!!!YEM: A copy of the licensing agreement may be found at http://www.music-cog.ohio-state.edu/HumdrumDatabases/Palestrina/license.txt
!!!EMD: converted to Humdrum by Bret Aarden
